web/ui/src/components/workflow/workflow-viewer/svgs/shape/condition.svg

<svg height="200" viewBox="0 0 200 200" width="200" xmlns="http://www.w3.org/2000/svg"><g fill="none" fill-rule="evenodd"><rect fill="#fff" height="198" rx="51" stroke="#ff9618" stroke-width="2" width="198" x="1" y="1"/><path d="m40 40h120v120h-120z" fill="#000" fill-rule="nonzero" opacity="0"/><path d="m40 40h120v120h-120z" fill="#417505" opacity="0"/><path d="m138.160511 93.7965199c.902344 0 1.699219.328125 2.355469.984375s.984375 1.453125.984375 2.3554687v13.3945314c0 .902344-.328125 1.699219-.984375 2.355469s-1.453125.984375-2.355469.984375h-70.3359371c-1.40625 0-2.5898438-.480469-3.5507813-1.464844l-7.3828125-7.382813c-.3515625-.351562-.5273437-.75-.5273437-1.195312 0-.445313.1757812-.867188.5273437-1.195313l7.3828125-7.3828121c.9726563-.9726563 2.1679688-1.4648438 3.5507813-1.4648438h26.7890625v-10.0546875h13.3945316v10.0898438zm7.59375-24.6445313c.351563.3515625.527344.75.527344 1.1953125s-.175781.8671875-.527344 1.1953125l-7.382812 7.3828125c-.972656.9726563-2.167969 1.4648438-3.550781 1.4648438h-70.3242191c-.9023438 0-1.6992188-.328125-2.3554688-.984375s-.984375-1.4414063-.984375-2.3554688v-13.3945312c0-.9023438.328125-1.6992188.984375-2.3554688s1.4414063-.984375 2.3554688-.984375h30.1523437v-3.3398437c0-.9023438.328125-1.6992188.984375-2.3554688s1.4414063-.984375 2.3554688-.984375h6.7031246c.902344 0 1.699219.328125 2.355469.984375s.984375 1.453125.984375 2.3554688v3.3398437h26.789063c1.40625 0 2.589843.4804688 3.550781 1.4648438zm-51.1406246 48.0937504h13.3945316v26.789062c0 .902344-.328125 1.699219-.984375 2.355469s-1.453125.984375-2.355469.984375h-6.7031251c-.9023438 0-1.6992188-.328125-2.3554688-.984375s-.984375-1.453125-.984375-2.355469z" fill="#ff9618" fill-rule="nonzero"/></g></svg>

<?xml version="1.0" encoding="UTF-8"?>
<svg width="200px" height="200px" viewBox="0 0 200 200" version="1.1" xmlns="http://www.w3.org/2000/svg" xmlns:xlink="http://www.w3.org/1999/xlink">
    <title>node-version</title>
    <g id="页面-1" stroke="none" stroke-width="1" fill="none" fill-rule="evenodd">
        <g id="节点" transform="translate(-2994.000000, -404.000000)">
            <g id="编组-9备份-5" transform="translate(2994.000000, 404.000000)">
                <rect id="矩形备份-39" stroke="#FF9618" stroke-width="2" fill="#FFFFFF" x="1" y="1" width="198" height="198" rx="51"></rect>
                <rect id="矩形" fill="#000000" fill-rule="nonzero" opacity="0" x="40" y="40" width="120" height="120"></rect>
                <rect id="Rectangle" fill="#417505" opacity="0" x="40" y="40" width="120" height="120"></rect>
                <path d="M138.160511,93.7965199 C139.062855,93.7965199 139.85973,94.1246449 140.51598,94.7808949 C141.17223,95.4371449 141.500355,96.2340199 141.500355,97.1363636 L141.500355,110.530895 C141.500355,111.433239 141.17223,112.230114 140.51598,112.886364 C139.85973,113.542614 139.062855,113.870739 138.160511,113.870739 L67.8245739,113.870739 C66.4183239,113.870739 65.2347301,113.39027 64.2737926,112.405895 L56.8909801,105.023082 C56.5394176,104.67152 56.3636364,104.273082 56.3636364,103.82777 C56.3636364,103.382457 56.5394176,102.960582 56.8909801,102.632457 L64.2737926,95.2496449 C65.2464489,94.2769886 66.4417614,93.7848011 67.8245739,93.7848011 L94.6136364,93.7848011 L94.6136364,83.7301136 L108.008168,83.7301136 L108.008168,93.8199574 L138.160511,93.7965199 Z M145.754261,69.1519886 C146.105824,69.5035511 146.281605,69.9019886 146.281605,70.3473011 C146.281605,70.7926136 146.105824,71.2144886 145.754261,71.5426136 L138.371449,78.9254261 C137.398793,79.8980824 136.20348,80.3902699 134.820668,80.3902699 L64.4964489,80.3902699 C63.5941051,80.3902699 62.7972301,80.0621449 62.1409801,79.4058949 C61.4847301,78.7496449 61.1566051,77.9644886 61.1566051,77.0504261 L61.1566051,63.6558949 C61.1566051,62.7535511 61.4847301,61.9566761 62.1409801,61.3004261 C62.7972301,60.6441761 63.5823864,60.3160511 64.4964489,60.3160511 L94.6487926,60.3160511 L94.6487926,56.9762074 C94.6487926,56.0738636 94.9769176,55.2769886 95.6331676,54.6207386 C96.2894176,53.9644886 97.0745739,53.6363636 97.9886364,53.6363636 L104.691761,53.6363636 C105.594105,53.6363636 106.39098,53.9644886 107.04723,54.6207386 C107.70348,55.2769886 108.031605,56.0738636 108.031605,56.9762074 L108.031605,60.3160511 L134.820668,60.3160511 C136.226918,60.3160511 137.410511,60.7965199 138.371449,61.7808949 L145.754261,69.1519886 Z M94.6136364,117.245739 L108.008168,117.245739 L108.008168,144.034801 C108.008168,144.937145 107.680043,145.73402 107.023793,146.39027 C106.367543,147.04652 105.570668,147.374645 104.668324,147.374645 L97.9651989,147.374645 C97.0628551,147.374645 96.2659801,147.04652 95.6097301,146.39027 C94.9534801,145.73402 94.6253551,144.937145 94.6253551,144.034801 L94.6136364,117.245739 Z" id="Shape" fill="#FF9618" fill-rule="nonzero"></path>
            </g>
        </g>
    </g>
</svg>
